packages/svg/warn-triangle-filled.svg

<svg width="1024" height="1024" fill="none" xmlns="http://www.w3.org/2000/svg"><path fill-rule="evenodd" clip-rule="evenodd" d="M574.596 203.252 928.99 755.828c12.906 20.12 12.901 44.91-.012 65.027-12.913 20.117-36.773 32.501-62.585 32.486H157.606c-25.812.015-49.672-12.369-62.585-32.486-12.913-20.117-12.918-44.907-.012-65.027l354.394-552.576c12.89-20.155 36.759-32.577 62.596-32.577 25.838 0 49.707 12.422 62.597 32.577ZM469.333 682.675h85.333v85.333h-85.333v-85.333Zm85.333-341.35h-85.333v298.667h85.333V341.325Z" fill="#303133"/></svg>

<svg width="1024" height="1024" viewBox="0 0 1024 1024" fill="none" xmlns="http://www.w3.org/2000/svg">
<path fill-rule="evenodd" clip-rule="evenodd" d="M574.596 203.252L928.99 755.828C941.896 775.948 941.891 800.738 928.978 820.855C916.065 840.972 892.205 853.356 866.393 853.341H157.606C131.794 853.356 107.934 840.972 95.0209 820.855C82.1075 800.738 82.1031 775.948 95.0093 755.828L449.403 203.252C462.293 183.097 486.162 170.675 511.999 170.675C537.837 170.675 561.706 183.097 574.596 203.252ZM469.333 682.675H554.666V768.008H469.333V682.675ZM554.666 341.325H469.333V639.992H554.666V341.325Z" fill="#303133"/>
</svg>
